X:5
T:Cumha na h-Oighe
T:Mackintosh's Lament
Z:Jack Campin, http://www.campin.me.uk/
F:Jack Campin's Nine-Note Tunebook
% last edit 03-02-2013
B:A' Choisir-Chuil (The St Columba Collection of Gaelic Songs)
N:very similar at the start to Dvorak's "Going Home" tune
M:6/8
L:1/8
Q:3/8=40
K:F
A2A  c3 |A2G  F3 |G2 G A3 |G2 F D3 |
F2D  F2D|F2D  C2C|D2 C A2A|G3   F3||
G>FG c2c|A>GF F3 |G>FG A2A|G>FD D3 |
F2D  F2D|F2D  C2C|D2 C A2A|G3   F3|]

